X: 25161
T: Major A. C. W. May's Welcome
R: jig
M: 6/8
K: Dmajor
A|:d2f a2f|g>fg e2f|g2A c2e|d>cd f2A|
d2f a2f|g>fg e2f|g2A c2e|d3 d2:|
f|:a2f f>ef|g2e e2e|f2d d>cd|e2d c>BA|
a2f f>ef|g2e e2d|c2A g>fe|d3 d2:|

